data/sheikah/7.svg

<!-- Generated by IcoMoon.io -->
<svg version="1.1" xmlns="http://www.w3.org/2000/svg" width="1024" height="1024" viewBox="0 0 1024 1024">
<title></title>
<g id="icomoon-ignore">
</g>
<path d="M153.5 870.5v-119.5h119.5v119.5h-119.5zM751 273v597.5l119.5-119.5v-478l-119.5-119.5h-478l-119.5 119.5h597.5zM153.5 571.5h299v299h119.5v-299l-119.5-119.5h-299v119.5z"></path>
</svg>

<svg xmlns="http://www.w3.org/2000/svg" width="1024" height="1024" viewBox="0 0 1024 1024">
  <title/>
  <path d="M153.5 870.5V751H273v119.5zM751 273v597.5L870.5 751V273L751 153.5H273L153.5 273zM153.5 571.5h299v299H572v-299L452.5 452h-299z"/>
</svg>
